icons/bhi_filter.svg

<svg xmlns="http://www.w3.org/2000/svg" viewBox="0 0 512 512" enable-background="new 0 0 512 512"><path fill="#010101" d="M512 0h-512s19.8 24.9 23.9 30.9l194.1 282.4c-.1.7-.4 1.4-.4 2.2v164.5h78.9v-164.5c0-.8-.3-1.5-.4-2.2l194-282.4c4.2-6 21.9-30.9 21.9-30.9zm-170.5 160h-169l-94.9-128h358.8l-94.9 128z"/></svg>

<?xml version="1.0" encoding="utf-8"?>
<!-- Generator: Adobe Illustrator 19.2.0, SVG Export Plug-In . SVG Version: 6.00 Build 0)  -->
<svg version="1.1" id="Layer_1" xmlns="http://www.w3.org/2000/svg" xmlns:xlink="http://www.w3.org/1999/xlink" x="0px" y="0px"
	 viewBox="0 0 512 512" enable-background="new 0 0 512 512" xml:space="preserve">
<path fill="#010101" d="M512,0c0,0-30.8,0-38.1,0H40.1C32.9,0,0,0,0,0s19.8,24.9,23.9,30.9L218,313.3c-0.1,0.7-0.4,1.4-0.4,2.2V480
	h78.9V315.5c0-0.8-0.3-1.5-0.4-2.2L490.1,30.9C494.3,24.9,512,0,512,0z M341.5,160h-169L77.6,32h358.8L341.5,160z"/>
</svg>
